X:3019
T:Hvor bor du lille rotte
C:anon.
O:Germany
R:Nursery song
Z:Transcribed by Frank Nordberg - http://www.musicaviva.com
F:http://abc.musicaviva.com/tunes/germany/hvor-bor-du-lille.abc
M:C|
L:1/4
K:F
F|"F"FFFF|"F"F2C2|"Bb"D2"C"E2|"F"F2 z :|F|
"F"AAAA|"Bb"B2B2|"C"G2G2|"Am"c2 z c|
"Dm"FFFF|"Gm"G2G2|"C"E2E2|"F"F2 z|]
W:
W:
W:  From Musica Viva - http://www.musicaviva.com
W:  the Internet center for free sheet music downloads.
